X:1
T:Sing On
M:4/4
L:1/4
R:Traditional
F:https://www.youtube.com/watch?v=l4h0zC7dmkk
K:Fmaj
P:A
C D || "F" FFFF | A3A | c2 c2 | A2 CD| FFFF | A2 c2 | "C7" c4-|c2 CD|
"F" FFFF | A3 A | c2 c2 | A2 CD| A^GAG | A c2 B | "C7" A2 G2 | "F" F2 A2 |
P:B
|: "F" c4-|c2 d2 | "F7" A4-|A2 G2| "Bb" F4-|F2 D2 | "F" C4-|C2 C D |
"F" FFFF | A2 c2 | "C7" c4-|c2 A2 |"F" c4-|c2 d2 |"F7" A4-|A2 G2 |
"Bb" F4- | F2 D2 | "F" C4-|C2 C D | FFFF | "C7" A2 G2 | "F" F4-|F2 z2 :|